svgs/sharp-regular/circle-i.svg

<svg xmlns="http://www.w3.org/2000/svg" viewBox="0 0 512 512"><!--! Font Awesome Pro 6.6.0 by @fontawesome - https://fontawesome.com License - https://fontawesome.com/license (Commercial License) Copyright 2024 Fonticons, Inc. --><path d="M256 48a208 208 0 1 1 0 416 208 208 0 1 1 0-416zm0 464A256 256 0 1 0 256 0a256 256 0 1 0 0 512zM184 128l-24 0 0 48 24 0 48 0 0 160-48 0-24 0 0 48 24 0 48 0 48 0 48 0 24 0 0-48-24 0-48 0 0-160 48 0 24 0 0-48-24 0-72 0-72 0z"/></svg>

<svg xmlns="http://www.w3.org/2000/svg" viewBox="0 0 512 512"><!--! Font Awesome Pro 6.5.2 by @fontawesome - https://fontawesome.com License - https://fontawesome.com/license (Commercial License) Copyright 2024 Fonticons, Inc. --><path d="M256 48a208 208 0 1 1 0 416 208 208 0 1 1 0-416zm0 464A256 256 0 1 0 256 0a256 256 0 1 0 0 512zM184 128H160v48h24 48V336H184 160v48h24 48 48 48 24V336H328 280V176h48 24V128H328 256 184z"/></svg>
